fs/share_screen_person_overlay_inside_28_regular.svg

<svg viewBox="0 0 28 28" fill="none" xmlns="http://www.w3.org/2000/svg" height="1em" width="1em">
  <path d="M6.5 7C5.67157 7 5 7.67157 5 8.5V12.5C5 13.3284 5.67157 14 6.5 14H11.5C12.3284 14 13 13.3284 13 12.5V8.5C13 7.67157 12.3284 7 11.5 7H6.5ZM21 10.5C21 11.8807 19.8807 13 18.5 13C17.1193 13 16 11.8807 16 10.5C16 9.11929 17.1193 8 18.5 8C19.8807 8 21 9.11929 21 10.5ZM14 15.5V15.75C14 18.0972 15.9028 20 18.25 20H18.75C21.0972 20 23 18.0972 23 15.75V15.5C23 14.6716 22.3284 14 21.5 14H15.5C14.6716 14 14 14.6716 14 15.5ZM5.75391 4C3.68284 4 2.00391 5.67893 2.00391 7.75V20.2501C2.00391 22.3211 3.68284 24.0001 5.75391 24.0001H22.2505C24.3216 24.0001 26.0005 22.3211 26.0005 20.2501V7.75C26.0005 5.67893 24.3216 4 22.2505 4H5.75391ZM3.50391 7.75C3.50391 6.50736 4.51127 5.5 5.75391 5.5H22.2505C23.4932 5.5 24.5005 6.50736 24.5005 7.75V20.2501C24.5005 21.4927 23.4932 22.5001 22.2505 22.5001H5.75391C4.51127 22.5001 3.50391 21.4927 3.50391 20.2501V7.75Z" fill="#212121"/>
</svg>

<svg viewBox="0 0 28 28" fill="none" xmlns="http://www.w3.org/2000/svg" height="1em" width="1em">
  <path d="M6.5 7A1.5 1.5 0 0 0 5 8.5v4A1.5 1.5 0 0 0 6.5 14h5a1.5 1.5 0 0 0 1.5-1.5v-4A1.5 1.5 0 0 0 11.5 7h-5ZM21 10.5a2.5 2.5 0 1 1-5 0 2.5 2.5 0 0 1 5 0Zm-7 5v.25A4.25 4.25 0 0 0 18.25 20h.5A4.25 4.25 0 0 0 23 15.75v-.25a1.5 1.5 0 0 0-1.5-1.5h-6a1.5 1.5 0 0 0-1.5 1.5ZM5.754 4a3.75 3.75 0 0 0-3.75 3.75v12.5A3.75 3.75 0 0 0 5.754 24H22.25A3.75 3.75 0 0 0 26 20.25V7.75A3.75 3.75 0 0 0 22.25 4H5.755Zm-2.25 3.75a2.25 2.25 0 0 1 2.25-2.25H22.25a2.25 2.25 0 0 1 2.25 2.25v12.5a2.25 2.25 0 0 1-2.25 2.25H5.755a2.25 2.25 0 0 1-2.25-2.25V7.75Z" fill="#212121"/>
</svg>
